!!!Genre:	Skotshne
!!!Mode:	Minor
!!!Edition:	2015
!!!Listening/dance:	listening
!!!Free rhythm?:	No
!!!Secondary Modes:	18-25
!!!:	*B-:
!!!One_Mode:	no
**kern
*I"P1
*clefG2
*k[b-e-]
*g:
*M2/4
*>A
=1
16gLL
16a
16b-
16aJJ
8gL
8gJ
=2
(8qg/
16fLL)
16en
16f
16a-XJJ
8gL
8gJ
=3
16gLL
16an
16b-
16aJJ
8gL
8b-J
=4
8aL
8gJ
4f
=5
16gLL
16a
16b-
16aJJ
8gL
8gJ
=6
(8qg/
16fLL)
16en
16f
16a-XJJ
8gL
8gJ
=7
8.b-L
16anJk
12b-L
12cc
12a-XJ
=8
4g
4r
=9:|!|:
*>B
4.cc
16b-LL
16aJJ
=10
(4.b-
8a)
=11
8ccL
8ccJ
8ccL
16b-L
16aJJ
=12
(4.b-
8a)
=13
8ccL
8ccJ
8ccL
16b-L
16aJJ
=14
8b-L
8b-J
8b-L
16aL
16gJJ
=15
16gLL
16aJ
8b-J
16aLL
16b-J
8ccJ
=16
8gL
8gJ
4f
=17:|!
4g
4r
*>bM
*B-:
=18!|:
*>C
4.dd
8cc
=19
4.b-
8cc
=20
16ddLL
16ee-
16dd
16ee-JJ
8ddL
8ccJ
=21
4.b-
8cc
=22
16.ddLL
32ee-k
16.dd
32ee-JJk
8ddL
8ccJ
=23
8ddL
8ee-
8ff
8ee-J
=24
16ddLL
16ee-
16dd
16ee-JJ
8ddL
8ccJ
=25
4b-
4r
*>eM
*g:
=26:|!|:
*>D
4cc
(8ccL
16b-L
16aJJ)
=27
8gL
8gJ
8b-L
8gJ
=28
16gLL
16aJ
8b-J
16aLL
16b-J
8ccJ
=29
8gL
8qa/
8gJ
4f
=30
4cc
8ccL
16b-L
16aJJ
=31
8gL
8gJ
4b-
=32
16gLL
16aJ
8b-J
16aLL
16b-J
8ccJ
=33
4g
4r
=:|!
*-
